X: 21402
T: ROSES BLAW
O: A Northumbrian air.
Q: "With spirit."
%R: jig
B: W. Hamilton "Universal Tune-Book" Vol. 2 Glasgow 1846 p.140 #2
S: http://s3-eu-west-1.amazonaws.com/itma.dl.printmaterial/book_pdfs/hamiltonvol2web.pdf
Z: 2016 John Chambers <jc:trillian.mit.edu>
M: 6/8
L: 1/8
K: A
% - - - - - - - - - - - - - - - - - - - - - - - - -
E |\
A>BA c2A | d2B G2E | A>BA c2d | e2a c2d |\
e2f =g2e | d2B ^G2B | e>fe dcB | A3- A2 :|
|: e |\
a2e c2A | d2B G2E | a2e c2d | e2a c2d |\
e2f =g2e | d2B ^G2B | e>fe dcB | A3- A2 :|
% - - - - - - - - - - - - - - - - - - - - - - - - -

%%sep 1 1 500
%%sep 1 1 500

